X:751
T:Xiraldilla (CT 038)
R:Xiraldilla
C:Tradicional
S:Msica Tradicional Asturiana, (C) Tello & Tito. Asturies, 2001.
S:http://pagina.de/MusTradAst <telloytito@asturies.org>
N:Xiraldilla, transcrita en Peruyes, ayuntamiento de Cangas d'Ons.
A:Asturies
D:Felpeyu: Tierra
O:Peruyes (Cangas d'Ons)
Z:Cancioneru de Torner 038
M:3/8
L:1/8
Q:3/8=88
K:C
|B3/2c/2d|dcd|B3/2c/2d|dcd|B3/2A/2G-|G2z|
|:G3/2A/2B|BAB|G3/2A/2B|BAB|A2G-|G2z:||
W:Me tirastes un limn,
W:me distes en la cara;
W:too lo paga l'amor
W:l'amor too lo paga,
W:too lo paga l'amor,
W:morena resalada.
W:
